X:1
C:Jackie Tolliday-Bailey
R:hornpipe
M:4/4
L:1/8
K:Dmaj
FBBA Bc d2 | FBBd cA F2 | FBBA Bcde | (3fed (3cBA BB |
fbba bc'd'2 | fbbd' c'a f2 | fbba bc' d'2 | (3fed (3cBA BB ||
eBBe dc B2 | BFFB A^G F2 | eBBe dc B2 | bfed cd B2 |
eBBe dc B2 | EFGA EAGF | EB,B,E DC B,2 | EFGA E2 E2 ||
|:DEFG AEAE | GABc dfed | AA c2 e2 c2 | dFEc d2 d2 :|
e2 B2 G2 E2 | dFAF EGBG | e2 B2 G2 E2 | dFAF E2 E2 |
e2 B2 G2 E2 | GEEG ^A2 B2 | eBeB de B | GEFG E2 E2 |]